docs/img/all-services/17.svg

<svg width="80" height="80" viewBox="0 0 80 80" fill="none" xmlns="http://www.w3.org/2000/svg">
<path d="M76.8054 42.3249C77.8522 42.8436 78.5709 43.9186 78.5709 45.1607C78.5709 46.9094 77.1451 48.3273 75.3867 48.3273H29.7663C28.0073 48.3273 26.582 46.9094 26.582 45.1607C26.582 43.412 28.0073 41.9941 29.7663 41.9941H40.6434" stroke="#0098D0" stroke-width="2" stroke-miterlimit="10" stroke-linecap="round" stroke-linejoin="round"/>
<path d="M37.4079 39.7201C38.306 38.6832 38.7405 37.2642 38.4695 35.8139C37.9968 33.275 35.543 31.5988 32.9899 32.0689C30.4368 32.54 28.7512 34.9796 29.224 37.5185C29.3773 38.3407 29.7384 39.0727 30.2433 39.671" stroke="#0098D0" stroke-width="2" stroke-miterlimit="10" stroke-linecap="round" stroke-linejoin="round"/>
<path d="M54.7057 41.3497H55.7245C57.8375 41.3497 59.655 39.8624 60.0615 37.8007L66.5813 34.9821L71.7363 40.5656C72.1383 41.0615 72.7439 41.3497 73.3842 41.3497C75.1661 41.3497 76.1508 39.2936 75.027 37.9182L69.1792 31.5207C68.2419 30.4139 66.7275 29.9757 65.3389 30.4098L58.5929 32.9964H54.288H45.884C45.4082 32.9964 44.936 33.0739 44.4857 33.2263L44.311 33.2851C43.172 33.6696 42.2016 34.4882 41.7472 35.5966C41.5475 36.0829 41.4375 36.6158 41.4375 37.1735C41.4375 39.4805 43.3177 41.3503 45.6375 41.3503H54.7057" stroke="#0098D0" stroke-width="2" stroke-miterlimit="10" stroke-linecap="round" stroke-linejoin="round"/>
<path d="M55.8698 36.9629H45.5469" stroke="#0098D0" stroke-width="2" stroke-miterlimit="10" stroke-linecap="round" stroke-linejoin="round"/>
<path d="M60.9102 41.3497H69.1685" stroke="#0098D0" stroke-width="2" stroke-miterlimit="10" stroke-linecap="round" stroke-linejoin="round"/>
<path d="M13.8164 12.8572H35.9349" stroke="#0098D0" stroke-width="2" stroke-miterlimit="10" stroke-linecap="round" stroke-linejoin="round"/>
<path d="M35.9349 65.7144H13.8164" stroke="#0098D0" stroke-width="2" stroke-miterlimit="10" stroke-linecap="round" stroke-linejoin="round"/>
<path d="M47.7709 28.612C45.7634 19.3332 41.2191 12.8577 35.9346 12.8577C28.7913 12.8577 23 24.6902 23 39.286C23 53.8818 28.7908 65.7143 35.9346 65.7143C38.5213 65.7143 40.9302 64.1632 42.951 61.4915" stroke="#0098D0" stroke-width="2" stroke-miterlimit="10" stroke-linecap="round" stroke-linejoin="round"/>
<path d="M14.3642 12.8572C7.22099 12.8572 1.42969 24.6897 1.42969 39.2855C1.42969 53.8813 7.22099 65.7138 14.3642 65.7138" stroke="#0098D0" stroke-width="2" stroke-miterlimit="10" stroke-linecap="round" stroke-linejoin="round"/>
<path d="M75.387 48.3273L69.1683 58.3903H30.7227" stroke="#0098D0" stroke-width="2" stroke-miterlimit="10" stroke-linecap="round" stroke-linejoin="round"/>
</svg>

<svg width="80" height="80" fill="none" xmlns="http://www.w3.org/2000/svg"><path d="M76.805 42.325a3.164 3.164 0 011.766 2.836 3.176 3.176 0 01-3.184 3.166h-45.62a3.175 3.175 0 01-3.185-3.166 3.175 3.175 0 013.184-3.167h10.877m-3.235-2.274a4.647 4.647 0 001.061-3.906c-.472-2.539-2.926-4.215-5.48-3.745-2.552.471-4.238 2.91-3.765 5.45a4.648 4.648 0 001.02 2.152m24.462 1.679h1.018a4.413 4.413 0 004.338-3.55l6.52-2.818 5.154 5.584a2.12 2.12 0 001.648.784c1.782 0 2.767-2.056 1.643-3.432l-5.848-6.397a3.619 3.619 0 00-3.84-1.111l-6.746 2.586H45.884a4.36 4.36 0 00-1.398.23l-.175.06c-1.139.384-2.11 1.202-2.564 2.31-.2.487-.31 1.02-.31 1.578 0 2.306 1.88 4.176 4.2 4.176h9.069m1.164-4.387H45.547M60.91 41.35h8.258M13.816 12.857h22.119m0 52.857H13.816" stroke="#0098D0" stroke-width="2" stroke-miterlimit="10" stroke-linecap="round" stroke-linejoin="round"/><path d="M47.77 28.612c-2.007-9.279-6.55-15.754-11.835-15.754C28.79 12.858 23 24.69 23 39.286s5.79 26.428 12.935 26.428c2.586 0 4.995-1.55 7.016-4.222M14.364 12.857C7.221 12.857 1.43 24.69 1.43 39.285c0 14.596 5.791 26.429 12.934 26.429" stroke="#0098D0" stroke-width="2" stroke-miterlimit="10" stroke-linecap="round" stroke-linejoin="round"/><path d="M75.387 48.327L69.168 58.39H30.723" stroke="#0098D0" stroke-width="2" stroke-miterlimit="10" stroke-linecap="round" stroke-linejoin="round"/></svg>
